assets/awsefs/original.svg

<svg height="64" viewBox="0 0 64 64" width="64" xmlns="http://www.w3.org/2000/svg"><g fill="none" fill-rule="evenodd"><path d="m0 0h64v64h-64z" fill="#7aa116"/><path d="m43.003 0h-6.983v2h4.457l-5.277 5.293 1.41 1.414 5.396-5.41v4.703h1.994v-7c0-.552-.446-1-.997-1m-41.008 3.297 5.395 5.41 1.41-1.414-5.277-5.293h4.457v-2h-6.983a1 1 0 0 0 -.997 1v7h1.995zm40.01 37.406-5.395-5.41-1.41 1.414 5.277 5.293h-4.457v2h6.982a1 1 0 0 0 .998-1v-7h-1.995zm-31.015-24.238c0-2.945 2.052-6.115 4.67-7.216 4.547-1.905 7.769.601 8.942 1.768.958.954 1.708 2.176 2.227 3.632a1 1 0 0 0 .789.652c.364.052.726-.094.946-.388.543-.723 1.332-1.137 2.166-1.137 1.257 0 2.78.977 2.943 3.731.026.451.35.827.79.92 3.26.687 4.912 2.49 4.912 5.359 0 .714-.085 1.362-.255 1.926l1.91.576c.226-.751.34-1.593.34-2.502 0-3.611-2.045-6.126-5.782-7.144-.482-3.337-2.788-4.866-4.858-4.866-.937 0-1.836.288-2.604.818a11 11 0 0 0 -2.12-2.997c-3.036-3.019-7.191-3.839-11.116-2.193-3.36 1.413-5.895 5.308-5.895 9.061q0 .186.01.381c-3.005 1.064-4.77 3.588-4.77 6.897 0 .169.009.338.018.5.16 2.921 2.103 5.445 4.95 6.431l.65-1.89c-2.076-.72-3.493-2.545-3.61-4.65a7 7 0 0 1 -.013-.391c0-3.642 2.553-4.823 4.076-5.202.487-.122.808-.589.75-1.09a8 8 0 0 1 -.066-.986m19.986 8.135c0-.312-.07-.488-.129-.543-.05-.048-.179-.071-.338-.059l-10.043.002a1 1 0 0 1 -.998-1 7 7 0 0 0 -.127-1h-2.286c-.095.349-.189.831-.196 1.009-.02.537-.462.991-.997.991h-2.302c-.232-.013-.356.008-.408.057-.059.055-.129.231-.129.543v10.4h17.953zm1.994 2.4v4.764l2.376-4.764zm-.104 9.447-.01-.004a.99.99 0 0 1 -.883.557h-19.947a1 1 0 0 1 -.997-1v-11.4c0-1.068.415-1.68.763-2.005.327-.305.904-.656 1.838-.593l1.351-.001c.167-.873.563-2.001 1.501-2.001h3.492q.097 0 .19.019c.798.155 1.107 1.164 1.226 1.981h9.05c.869-.066 1.442.289 1.768.595.347.325.762.937.762 2.005v.4h3.99a1 1 0 0 1 .892 1.447zm-24.065.26-5.281 5.293h4.46v2h-6.983a1 1 0 0 1 -.997-1v-7h1.995v4.703l5.395-5.41z" fill="#fff" transform="translate(9.854 10)"/></g></svg>

<svg xmlns="http://www.w3.org/2000/svg" width="64" height="64" viewBox="0 0 64 64"><title>Icon-Architecture/48/Arch_Amazon-EFS_48</title><g id="Icon-Architecture/48/Arch_Amazon-EFS_48" fill="none" fill-rule="evenodd" stroke="none" stroke-width="1"><g id="Icon-Architecture-BG/48/Storage" fill="#7aa116"><path id="Rectangle" d="M0 0h64v64H0z"/></g><g id="Icon-Service/48/Amazon-EFS_48" fill="#fff" transform="translate(9.854 10)"><path id="Amazon-EFS_Icon_48_Squid" d="M43.003 0H36.02v2h4.457L35.2 7.293l1.41 1.414 5.396-5.41V8H44V1c0-.552-.446-1-.997-1M1.995 3.297l5.395 5.41L8.8 7.293 3.523 2h4.457V0H.997A1 1 0 0 0 0 1v7h1.995zm40.01 37.406-5.395-5.41-1.41 1.414L40.477 42h-4.457v2h6.982A1 1 0 0 0 44 43v-7h-1.995zM10.99 16.465c0-2.945 2.052-6.115 4.67-7.216 4.547-1.905 7.769.601 8.942 1.768.958.954 1.708 2.176 2.227 3.632a1 1 0 0 0 .789.652c.364.052.726-.094.946-.388.543-.723 1.332-1.137 2.166-1.137 1.257 0 2.78.977 2.943 3.731.026.451.35.827.79.92 3.26.687 4.912 2.49 4.912 5.359 0 .714-.085 1.362-.255 1.926l1.91.576c.226-.751.34-1.593.34-2.502 0-3.611-2.045-6.126-5.782-7.144-.482-3.337-2.788-4.866-4.858-4.866-.937 0-1.836.288-2.604.818a11 11 0 0 0-2.12-2.997C22.97 6.578 18.815 5.758 14.89 7.404c-3.36 1.413-5.895 5.308-5.895 9.061q0 .186.01.381c-3.005 1.064-4.77 3.588-4.77 6.897 0 .169.009.338.018.5.16 2.921 2.103 5.445 4.95 6.431l.65-1.89c-2.076-.72-3.493-2.545-3.61-4.65a7 7 0 0 1-.013-.391c0-3.642 2.553-4.823 4.076-5.202.487-.122.808-.589.75-1.09a8 8 0 0 1-.066-.986M30.976 24.6c0-.312-.07-.488-.129-.543-.05-.048-.179-.071-.338-.059L20.466 24a1 1 0 0 1-.998-1 7 7 0 0 0-.127-1h-2.286c-.095.349-.189.831-.196 1.009-.02.537-.462.991-.997.991H13.56c-.232-.013-.356.008-.408.057-.059.055-.129.231-.129.543V35h17.953zM32.97 27v4.764L35.346 27zm-.104 9.447-.01-.004a.99.99 0 0 1-.883.557H12.026a1 1 0 0 1-.997-1V24.6c0-1.068.415-1.68.763-2.005.327-.305.904-.656 1.838-.593l1.351-.001c.167-.873.563-2.001 1.501-2.001h3.492q.097 0 .19.019c.798.155 1.107 1.164 1.226 1.981h9.05c.869-.066 1.442.289 1.768.595.347.325.762.937.762 2.005v.4h3.99a1 1 0 0 1 .892 1.447zm-24.065.26L3.52 42H7.98v2H.997A1 1 0 0 1 0 43v-7h1.995v4.703l5.395-5.41z"/></g></g></svg>
